X:522
T:Reel 522
M:4/4
K:Dmaj
L:1/8
A>G (3FED E2E>D| (3FB,C B,>D E>DA,2|G>E (3EDE G>E (3EDE |GEE (3FGA B2AG|F>B, (3B,A,B, B,>EA,>C| (3B,CB, A,>B, G2FG| (3EGE FG FdcBA| (3Bcd ce dBAF| (3GAB c2 d2c2|AGFE D2F2|B,>E (3EDE B2Bd|EEEE  (3EFG F2|F>c (3cdc B2BA| (3FGF B2 d2 (3ABc |dBcA BGAF|EDB,D EGFD|
